img/illustration-box-desktop.svg

<svg width="191" height="184" xmlns="http://www.w3.org/2000/svg" xmlns:xlink="http://www.w3.org/1999/xlink"><defs><filter x="-97.9%" y="-76.3%" width="295.8%" height="313.7%" filterUnits="objectBoundingBox" id="a"><feOffset dy="25" in="SourceAlpha" result="shadowOffsetOuter1"/><feGaussianBlur stdDeviation="25" in="shadowOffsetOuter1" result="shadowBlurOuter1"/><feColorMatrix values="0 0 0 0 0.209139076 0 0 0 0 0.0691446444 0 0 0 0 0.478091033 0 0 0 0.497159091 0" in="shadowBlurOuter1"/></filter><path id="b" d="M0 27.756v53.87l41.968 24.035 47.387-28.025v-53.87"/></defs><g fill="none" fill-rule="evenodd"><g transform="translate(50.93 2.125)"><use fill="#000" filter="url(#a)" xlink:href="#b"/><use fill="#FF9271" xlink:href="#b"/></g><path fill="#DF5C34" fill-rule="nonzero" d="M92.899 53.917v53.87l47.387-28.026v-53.87z"/><path fill="#F47B56" fill-rule="nonzero" d="M50.93 29.88L99.624 2.126l40.662 23.767-47.387 28.025z"/><path d="M94.013 14.49a25.942 25.942 0 0114.207 3.129c2.486 1.462 3.844 2.988 4.036 4.579.192 1.59-.628 2.975-2.562 4.143a9.115 9.115 0 01-2.985 1.18c-.869.205-1.76.295-2.652.269l-.974-.077c.091.217.151.446.18.68a3.132 3.132 0 01-.513 1.552 5.704 5.704 0 01-2.1 2.065 12.633 12.633 0 01-6.7 1.77 13.247 13.247 0 01-6.957-1.757c-1.999-1.18-3.023-2.566-3.1-4.156a4.49 4.49 0 012.562-4.015 8.488 8.488 0 012.357-1.013 9.175 9.175 0 012.037-.346h.705l-1.282-.77 3.6-2.244 8.34 4.912a4.377 4.377 0 004.15 0c1.769-1.103 1.137-2.552-1.895-4.348a19.261 19.261 0 00-10.556-2.347 21.67 21.67 0 00-11.018 3.168c-3.023 1.89-4.522 4.143-4.496 6.76 0 2.564 1.601 4.848 4.714 6.682a21.015 21.015 0 0011.146 2.655 20.926 20.926 0 0011.017-2.925 12.353 12.353 0 003.062-2.565 5.683 5.683 0 001.28-2.18l.18-.808 4.753.269c.008.145.008.29 0 .436a8.216 8.216 0 01-.346 1.154 8.303 8.303 0 01-.82 1.72 11.912 11.912 0 01-1.69 2 15.952 15.952 0 01-2.755 2.13 25.602 25.602 0 01-9.326 3.36 35.176 35.176 0 01-10.877.192 24.896 24.896 0 01-9.339-3.053 12.127 12.127 0 01-5.304-5.566 8.192 8.192 0 010-6.593 12.692 12.692 0 015.266-5.759 28.966 28.966 0 0114.655-4.284zm4.663 13.262c-.17-.891-.77-1.64-1.601-2.001a6.579 6.579 0 00-3.33-.911 5.619 5.619 0 00-3.101.795 2.283 2.283 0 00-1.281 2.001c.117.89.69 1.654 1.512 2.014a6.54 6.54 0 003.394.86 6.092 6.092 0 003.254-.847 2.065 2.065 0 001.205-1.911" fill="#3E2928" fill-rule="nonzero"/></g></svg>

<?xml version="1.0" encoding="UTF-8" standalone="no"?>
<!DOCTYPE svg PUBLIC "-//W3C//DTD SVG 1.1//EN" "http://www.w3.org/Graphics/SVG/1.1/DTD/svg11.dtd">
<svg width="100%" height="100%" viewBox="0 0 191 184" version="1.1" xmlns="http://www.w3.org/2000/svg" xmlns:xlink="http://www.w3.org/1999/xlink" xml:space="preserve" xmlns:serif="http://www.serif.com/" style="fill-rule:evenodd;clip-rule:evenodd;stroke-linejoin:round;stroke-miterlimit:2;">
    <g>
        <g transform="matrix(1,0,0,1,50.93,2.125)">
            <path id="b" d="M0,27.756L0,81.626L41.968,105.661L89.355,77.636L89.355,23.766"/>
            <path id="b1" serif:id="b" d="M0,27.756L0,81.626L41.968,105.661L89.355,77.636L89.355,23.766" style="fill:rgb(255,146,113);"/>
        </g>
        <path d="M92.899,53.917L92.899,107.787L140.286,79.761L140.286,25.891L92.899,53.917Z" style="fill:rgb(223,92,52);fill-rule:nonzero;"/>
        <path d="M50.93,29.88L99.624,2.126L140.286,25.893L92.899,53.918L50.93,29.88Z" style="fill:rgb(244,123,86);fill-rule:nonzero;"/>
        <path d="M94.013,14.49C98.95,14.157 103.88,15.243 108.22,17.619C110.706,19.081 112.064,20.607 112.256,22.198C112.448,23.788 111.628,25.173 109.694,26.341C108.777,26.908 107.766,27.307 106.709,27.521C105.84,27.726 104.949,27.816 104.057,27.79L103.083,27.713C103.174,27.93 103.234,28.159 103.263,28.393C103.232,28.947 103.055,29.482 102.75,29.945C102.243,30.805 101.519,31.517 100.65,32.01C98.626,33.213 96.304,33.826 93.95,33.78C91.514,33.846 89.106,33.237 86.993,32.023C84.994,30.843 83.97,29.457 83.893,27.867C83.908,26.151 84.906,24.589 86.455,23.852C87.185,23.397 87.98,23.055 88.812,22.839C89.476,22.647 90.159,22.531 90.849,22.493L91.554,22.493L90.272,21.723L93.872,19.479L102.212,24.391C103.506,25.088 105.068,25.088 106.362,24.391C108.131,23.288 107.499,21.839 104.467,20.043C101.245,18.269 97.581,17.454 93.911,17.696C90.021,17.744 86.214,18.838 82.893,20.864C79.87,22.754 78.371,25.007 78.397,27.624C78.397,30.188 79.998,32.472 83.111,34.306C86.508,36.206 90.368,37.125 94.257,36.961C98.129,37.024 101.943,36.011 105.274,34.036C106.427,33.353 107.461,32.486 108.336,31.471C108.921,30.85 109.358,30.105 109.616,29.291L109.796,28.483L114.549,28.752C114.557,28.897 114.557,29.042 114.549,29.188C114.462,29.581 114.346,29.966 114.203,30.342C113.997,30.945 113.721,31.522 113.383,32.062C112.895,32.789 112.328,33.459 111.693,34.062C110.855,34.87 109.931,35.585 108.938,36.192C106.078,37.909 102.91,39.05 99.612,39.552C96.018,40.18 92.349,40.244 88.735,39.744C85.45,39.357 82.275,38.319 79.396,36.691C77.071,35.46 75.209,33.506 74.092,31.125C73.169,29.025 73.169,26.632 74.092,24.532C75.199,22.107 77.042,20.092 79.358,18.773C83.772,16.06 88.833,14.581 94.013,14.489L94.013,14.49ZM98.676,27.752C98.506,26.861 97.906,26.112 97.075,25.751C96.066,25.156 94.916,24.842 93.745,24.84C92.656,24.799 91.579,25.075 90.644,25.635C89.877,26.009 89.382,26.783 89.363,27.636C89.48,28.526 90.053,29.29 90.875,29.65C91.907,30.24 93.081,30.537 94.269,30.51C95.412,30.539 96.539,30.245 97.523,29.663C98.267,29.322 98.741,28.57 98.728,27.752" style="fill:rgb(62,41,40);fill-rule:nonzero;"/>
    </g>
</svg>
